!!!OTL@@DE: Frohe Botschaft
!!!COM: M&uuml;ller, Wenzel
!!!ODT: 1822
!!!OMD: Allegretto
!!!ONB: Aus "Aline" von Adolf B&auml;uerle und Wenzel M&uuml;ller
!!!ONB: Hier nach dem Liederspiel: "Die Wiener in Berlin" von Carl von Holtei 1824
!!!LDT: 1822
!!!OCL: Erk, Ludwig
!!!GCO: Deutscher Liederschatz, Band 1
**kern	**kern	**kern
*staff3	*staff2	*staff1
*Ipiano	*Ipiano	*Ivox
*clefF4	*clefG2	*clefG2
*k[f#]	*k[f#]	*k[f#]
*G:	*G:	*G:
*M3/4	*M3/4	*M3/4
*MM118	*MM118	*MM118
4r	8g/ 8b/L	8b\
.	8a/ 8cc/J	8cc\
=1	=1	=1
4GG/	4b\ 4dd\	4dd\
4G\ 4d\	4g/ 4b/	4b\
4G\ 4d\	4g/ 4b/	4b\
=2	=2	=2
4D\	4g/ 4b/	4b\
4d\	4f#/ 4a/	4a/
4r	8f#/ 8a/L	8a/
.	8g/ 8b/J	8b\
=3	=3	=3
4D\	4a\ 4cc\	4cc\
4d\	4f#/ 4a/	4a/
4d\	4f#/ 4a/	4a/
=4	=4	=4
4G\	4g/ 4b/	4b\
4GG/	4r	4r
4r	8g/ 8b/L	8b\
.	8a/ 8cc/J	8cc\
=5	=5	=5
4GG/	4b\ 4dd\	4dd\
4G\ 4d\	4g/ 4b/	4b\
4G\ 4d\	4g/ 4b/	4b\
=6	=6	=6
4C/	4e/ 4b/	4b\
4c\	4e/ 4a/	4a/
*	*^	*
8C/L	8a/L	4e\	8a/
8BB/J	8b/J	.	8b\
*	*v	*v	*
=7	=7	=7
4AA/	4e/ 4cc/	4cc\
4D\	4c/ 4f#/	4f#/
4D\	4c/ 4f#/	4f#/
=8	=8	=8
4G\	4B/ 4g/	4g/
4GG/	4r	4r
4r	(8d/L	4r
.	8g/J)	.
=9	=9	=9
4G\	(8b\L	2.r
.	8gg\J)	.
4B\ 4d\	4dd\	.
4B\ 4d\	(8b/L	.
.	8g/J)	.
=10	=10	=10
4D\	(8f#\L	2.r
.	8ee\J)	.
4A\ 4c\	4cc\	.
4A\ 4c\	(8a/L	.
.	8f#/J)	.
=11	=11	=11
4D\	(8d/L	2.r
.	8cc/J)	.
4A\ 4c\	4a/	.
4A\ 4c\	(8f#/L	.
.	8d/J)	.
=12	=12	=12
4G\ 4B\	4g/	4r
4GG/	4r	4r
==	==	==
*-	*-	*-
!!!ENC: Craig Stuart Sapp
!!!END: 2004/06/03/
!!!EFL: 068/651
